X: 4528
T: Border, The
R: reel
M: 4/4
K: Dmajor
A3f edBc|d2ef gfdB|A3f edBc|d2 AB dAAG|
FAdf edBA|d2ef g4|a3f d2AB|2 defg edBG:|2 defg edBA||
B3A B2dB|effd efdA|B3A B2gf|a2gf gfdA|
B3A B2dB|effe defg|a3f d2AB|defg edBA|
B3A B2dB|effd efdA|B3A B2gf|a2gf gfdA|
B3A B2dB|effe defg|a3f d2AA|fgaf gfdB||

